X:1
T:Dalmatia, 77.77 D
T:Dalmatia, 77.77 D
T:William Howard Doane, 1880
T:Public Domain Courtesy of the Cyber Hymnal™
C:William Howard Doane, 1880
Z:Public Domain
Z:Courtesy of the Cyber Hymnal™
%%score ( 1 2 ) ( 3 4 )
L:1/8
Q:1/4=93
M:6/8
K:Bb
V:1 treble 
V:2 treble 
V:3 bass 
V:4 bass 
V:1
 [DF]2 [FB] (AG)F | [FB]2 [Fc] [Fd]3 | [Fc]2 [Fc] (cd)[Fe] | [Fd]2 [Ec] [DB]2 z | %4
 [DF]2 [FB] (AG)[FA] | [FB]2 [Fc] [Fd]3 | [Fc]2 [Gd] [Ge]2 [Gc] | [FB]2 [FA] [FB]2 z | %8
 [Fc]2 [F=B] [Fc]2 [Fe] | [Fd]2 [Fc] [FB]3 | [GB]2 [^FA] [GB]2 [EG] | F2 [DB] [Fc]3 | %12
 [DF]2 [FB] (AG)[FA] | [FB]2 [Fc] [Fd]3 | [Gc]2 [Gd] [Ge]2 [Gc] | %15
 !fermata![FB]2 !fermata![FA] [FB]2 z |] %16
V:2
 x3 E2 F | x6 | x3 F2 x | x6 | x3 E2 x | x6 | x6 | x6 | x6 | x6 | x6 | F2 x4 | x3 E2 x | x6 | x6 | %15
 x6 |] %16
V:3
 [B,,B,]2 [B,,D] (CB,)[E,A,] | [D,B,]2 [C,A,] [B,,B,]3 | [F,A,]2 [F,A,] (A,B,)[F,C] | %3
 [F,B,]2 [F,A,] [B,,B,]2 z | [B,,B,]2 [B,,D] (CB,)[E,C] | [D,B,]2 [C,A,] [B,,B,]3 | %6
 [E,C]2 [D,=B,] [C,C]2 [E,C] | [F,D]2 [F,E] [B,,D]2 z | [F,A,]2 [F,^G,] [F,A,]2 [F,C] | %9
 [F,B,]2 [F,E] [B,,D]3 | [E,B,]2 [E,B,] [E,B,]2 [E,B,] | [D,B,]2 [B,,B,] [F,A,]3 | %12
 [B,,B,]2 [B,,D] (CB,)[E,C] | [D,B,]2 [C,A,] [B,,B,]3 | [E,C]2 [D,=B,] [C,C]2 [E,C] | %15
 [F,D]2 [F,C] [B,,D]2 z |] %16
V:4
 x3 F,2 x | x6 | x3 F,2 x | x6 | x3 F,2 x | x6 | x6 | x6 | x6 | x6 | x6 | x6 | x3 F,2 x | x6 | x6 | %15
 x6 |] %16

